_includes/icons/color-movies-folder.svg

<svg fill="#666" height="50" viewBox="0 0 48 48" width="50" xmlns="http://www.w3.org/2000/svg"><path d="m40 12h-18l-4-4h-10c-2.199219 0-4 1.800781-4 4v8h40v-4c0-2.199219-1.800781-4-4-4z" fill="#ffa000"/><path d="m40 12h-32c-2.199219 0-4 1.800781-4 4v20c0 2.199219 1.800781 4 4 4h32c2.199219 0 4-1.800781 4-4v-20c0-2.199219-1.800781-4-4-4z" fill="#ffca28"/><path d="m34 18h-20v16h20zm-11 15v-2h2v2zm4 0v-2h2v2zm4 0v-2h2v2zm-12 0v-2h2v2zm-4 0v-2h2v2zm8-12v-2h2v2zm4 0v-2h2v2zm4 0v-2h2v2zm-12 0v-2h2v2zm-4 0v-2h2v2z" fill="#3f51b5"/></svg>

<svg xmlns="http://www.w3.org/2000/svg" viewBox="0 0 48 48" width="50" height="50" fill="#666"><path d="M 40 12 L 22 12 L 18 8 L 8 8 C 5.800781 8 4 9.800781 4 12 L 4 20 L 44 20 L 44 16 C 44 13.800781 42.199219 12 40 12 Z" fill="#ffa000"/><path d="M 40 12 L 8 12 C 5.800781 12 4 13.800781 4 16 L 4 36 C 4 38.199219 5.800781 40 8 40 L 40 40 C 42.199219 40 44 38.199219 44 36 L 44 16 C 44 13.800781 42.199219 12 40 12 Z" fill="#ffca28"/><path d="M 34 18 L 14 18 L 14 34 L 34 34 Z M 23 33 L 23 31 L 25 31 L 25 33 Z M 27 33 L 27 31 L 29 31 L 29 33 Z M 31 33 L 31 31 L 33 31 L 33 33 Z M 19 33 L 19 31 L 21 31 L 21 33 Z M 15 33 L 15 31 L 17 31 L 17 33 Z M 23 21 L 23 19 L 25 19 L 25 21 Z M 27 21 L 27 19 L 29 19 L 29 21 Z M 31 21 L 31 19 L 33 19 L 33 21 Z M 19 21 L 19 19 L 21 19 L 21 21 Z M 15 21 L 15 19 L 17 19 L 17 21 Z" fill="#3f51b5"/></svg>
